src/assets/icons/twitter.svg

<svg xmlns="http://www.w3.org/2000/svg" xmlns:xlink="http://www.w3.org/1999/xlink" viewBox="0,0,256,256" width="50px" height="50px"><g fill="#323842" fill-rule="nonzero" stroke="none" stroke-width="1" stroke-linecap="butt" stroke-linejoin="miter" stroke-miterlimit="10" stroke-dasharray="" stroke-dashoffset="0" font-family="none" font-weight="none" font-size="none" text-anchor="none" style="mix-blend-mode: normal"><g transform="scale(5.12,5.12)"><path d="M11,4c-3.866,0 -7,3.134 -7,7v28c0,3.866 3.134,7 7,7h28c3.866,0 7,-3.134 7,-7v-28c0,-3.866 -3.134,-7 -7,-7zM13.08594,13h7.9375l5.63672,8.00977l6.83984,-8.00977h2.5l-8.21094,9.61328l10.125,14.38672h-7.93555l-6.54102,-9.29297l-7.9375,9.29297h-2.5l9.30859,-10.89648zM16.91406,15l14.10742,20h3.06445l-14.10742,-20z"></path></g></g></svg>

<svg xmlns="http://www.w3.org/2000/svg" viewBox="0 0 256 256" width="50" height="50"><path d="M11 4a7 7 0 0 0-7 7v28a7 7 0 0 0 7 7h28a7 7 0 0 0 7-7V11a7 7 0 0 0-7-7zm2.086 9h7.937l5.637 8.01L33.5 13H36l-8.21 9.613L37.913 37H29.98l-6.542-9.293L15.5 37H13l9.309-10.896zm3.828 2 14.107 20h3.065L19.979 15z" transform="scale(5.12)" fill="#323842" stroke-miterlimit="10" font-family="none" font-weight="none" font-size="none" text-anchor="none" style="mix-blend-mode:normal"/></svg>
